apps/16/audacious.svg

<?xml version="1.0" encoding="UTF-8"?>
<!-- Created with Inkscape (http://www.inkscape.org/) -->
<svg width="16" height="16" version="1.1" xmlns="http://www.w3.org/2000/svg" xmlns:cc="http://creativecommons.org/ns#" xmlns:dc="http://purl.org/dc/elements/1.1/" xmlns:rdf="http://www.w3.org/1999/02/22-rdf-syntax-ns#">
	<defs>
		<radialGradient id="a" cx="7.5229" cy="8.2544" r="5.8618" gradientTransform="matrix(1.7118 0 0 2.3362 -3368.8 2089.4)" gradientUnits="userSpaceOnUse">
			<stop stop-color="#ffffff" stop-opacity=".74858" offset="0"/>
			<stop stop-color="#ffffff" stop-opacity=".60511" offset="1"/>
		</radialGradient>
		<radialGradient id="b" cx="-3356.4" cy="2108.7" r="7" gradientTransform="matrix(2.1428 0 0 2.1428 3835.9 -2409.9)" gradientUnits="userSpaceOnUse">
			<stop stop-color="#213851" stop-opacity=".9059" offset="0"/>
			<stop stop-color="#27303a" stop-opacity="0" offset="1"/>
		</radialGradient>
	</defs>
	<metadata>
		<rdf:RDF>
			<cc:Work rdf:about="">
				<dc:format>image/svg+xml</dc:format>
				<dc:type rdf:resource="http://purl.org/dc/dcmitype/StillImage"/>
				<dc:title/>
			</cc:Work>
		</rdf:RDF>
	</metadata>
	<g transform="translate(3364.4 -2100.7)">
		<path d="m-3356.4 2101.7c-3.8556 0-7 3.1444-7 7s3.1444 7 7 7 7-3.1444 7-7-3.1444-7-7-7zm-2 4h4l1 1v4l-1 1h-4l-1-1v-2l1-1h4l-1-1h-3zm1 3-1 1 1 1h2l1-1v-1z" color="#000000" fill="#000000" fill-opacity=".76471" style="paint-order:normal;text-decoration-line:none;text-indent:0;text-transform:none"/>
		<path d="m-3356.4 2101.7c-3.8556 0-7 3.1444-7 7s3.1444 7 7 7 7-3.1444 7-7-3.1444-7-7-7zm-2 4h4l1 1v4l-1 1h-4l-1-1v-2l1-1h4l-1-1h-3v-1zm1 3-1 1 1 1h2l1-1v-1h-3z" color="#000000" fill="url(#b)" fill-opacity=".76471" style="block-progression:tb;font-variant-east_asian:normal;paint-order:normal;text-indent:0;text-transform:none"/>
		<path transform="translate(-3364.4 2100.7)" d="m8-4.3243e-5c-4.4048 0-8 3.5953-8 8 0 4.4048 3.5953 8 8 8 4.4048 0 8-3.5953 8-8 0-4.4048-3.5953-8-8-8zm0 1c3.8556 0 7 3.1444 7 7s-3.1444 7-7 7-7-3.1444-7-7 3.1444-7 7-7zm-2 4v1h3l1 1h-4l-1 1v2l1 1h4l1-1v-4l-1-1zm1 3h3v1l-1 1h-2l-1-1z" color="#000000" fill="url(#a)" style="paint-order:normal;text-decoration-line:none;text-indent:0;text-transform:none"/>
	</g>
</svg>

<?xml version="1.0" encoding="UTF-8" standalone="no"?>
<!-- Created with Inkscape (http://www.inkscape.org/) -->

<svg
   xmlns:dc="http://purl.org/dc/elements/1.1/"
   xmlns:cc="http://creativecommons.org/ns#"
   xmlns:rdf="http://www.w3.org/1999/02/22-rdf-syntax-ns#"
   xmlns:svg="http://www.w3.org/2000/svg"
   xmlns="http://www.w3.org/2000/svg"
   xmlns:sodipodi="http://sodipodi.sourceforge.net/DTD/sodipodi-0.dtd"
   xmlns:inkscape="http://www.inkscape.org/namespaces/inkscape"
   width="16"
   height="16"
   id="svg27665"
   version="1.1"
   inkscape:version="0.48.3.1 r9886"
   sodipodi:docname="audacious.svg">
  <defs
     id="defs27667" />
  <sodipodi:namedview
     id="base"
     pagecolor="#ffffff"
     bordercolor="#666666"
     borderopacity="1.0"
     inkscape:pageopacity="0.0"
     inkscape:pageshadow="2"
     inkscape:zoom="45.254834"
     inkscape:cx="7.9609146"
     inkscape:cy="8.1236905"
     inkscape:document-units="px"
     inkscape:current-layer="layer1"
     showgrid="true"
     inkscape:window-width="1920"
     inkscape:window-height="1033"
     inkscape:window-x="-10"
     inkscape:window-y="25"
     inkscape:window-maximized="1"
     inkscape:snap-bbox="true"
     inkscape:bbox-paths="true"
     inkscape:bbox-nodes="true"
     inkscape:snap-bbox-edge-midpoints="true"
     inkscape:snap-bbox-midpoints="true"
     inkscape:object-paths="true"
     inkscape:snap-intersection-paths="true"
     inkscape:object-nodes="true"
     inkscape:snap-smooth-nodes="true"
     inkscape:snap-midpoints="true"
     inkscape:snap-object-midpoints="true"
     inkscape:snap-center="true"
     inkscape:snap-global="true"
     showguides="false"
     inkscape:guide-bbox="true"
     fit-margin-top="0"
     fit-margin-left="0"
     fit-margin-right="0"
     fit-margin-bottom="0"
     inkscape:showpageshadow="false">
    <sodipodi:guide
       orientation="0,1"
       position="599.99999,299.99993"
       id="guide3572" />
    <sodipodi:guide
       orientation="1,0"
       position="294.41949,12.121716"
       id="guide3574" />
    <sodipodi:guide
       orientation="0,1"
       position="456.04389,599.99992"
       id="guide3576" />
    <sodipodi:guide
       orientation="0,1"
       position="-2.8882813e-06,-8.4406273e-05"
       id="guide3578" />
    <sodipodi:guide
       orientation="1,0"
       position="-2.8882813e-06,157.58366"
       id="guide3580" />
    <sodipodi:guide
       orientation="1,0"
       position="599.99999,121.21821"
       id="guide3582" />
    <sodipodi:guide
       orientation="0,1"
       position="599.99999,-714.34359"
       id="guide5928" />
    <sodipodi:guide
       orientation="0,1"
       position="599.99999,-414.34359"
       id="guide5930" />
    <sodipodi:guide
       orientation="0,1"
       position="599.99999,-1014.3435"
       id="guide5932" />
    <sodipodi:guide
       orientation="0,1"
       position="451.57029,524.99606"
       id="guide5294" />
    <sodipodi:guide
       orientation="0,1"
       position="451.57029,75.013516"
       id="guide5296" />
    <sodipodi:guide
       orientation="0,1"
       position="496.01499,-931.36409"
       id="guide5413" />
    <sodipodi:guide
       orientation="0,1"
       position="457.34859,-489.34389"
       id="guide5415" />
    <inkscape:grid
       type="xygrid"
       id="grid3070"
       empspacing="5"
       visible="true"
       enabled="true"
       snapvisiblegridlinesonly="true"
       originx="4.3243213e-05px"
       originy="-2.6947047e-05px" />
  </sodipodi:namedview>
  <metadata
     id="metadata27670">
    <rdf:RDF>
      <cc:Work
         rdf:about="">
        <dc:format>image/svg+xml</dc:format>
        <dc:type
           rdf:resource="http://purl.org/dc/dcmitype/StillImage" />
        <dc:title />
      </cc:Work>
    </rdf:RDF>
  </metadata>
  <g
     inkscape:label="Camada 1"
     inkscape:groupmode="layer"
     id="layer1"
     transform="translate(3364.4171,-2100.7186)">
    <path
       id="path2997"
       d="m -3356.4171,2101.7186 c -3.8556,0 -7,3.1444 -7,7 0,3.8556 3.1444,7 7,7 3.8556,0 7,-3.1444 7,-7 0,-3.8556 -3.1444,-7 -7,-7 z m -2,4 4,0 1,1 0,4 -1,1 -4,0 -1,-1 0,-2 1,-1 4,0 -1,-1 -3,0 0,-1 z m 1,3 -1,1 1,1 2,0 1,-1 0,-1 -3,0 z"
       style="font-size:medium;font-style:normal;font-variant:normal;font-weight:normal;font-stretch:normal;text-indent:0;text-align:start;text-decoration:none;line-height:normal;letter-spacing:normal;word-spacing:normal;text-transform:none;direction:ltr;block-progression:tb;writing-mode:lr-tb;text-anchor:start;baseline-shift:baseline;color:#000000;fill:#27303a;fill-opacity:0.753280819999999968;stroke:none;stroke-width:2.28571415;marker:none;visibility:visible;display:inline;overflow:visible;enable-background:accumulate;font-family:Sans;-inkscape-font-specification:Sans"
       inkscape:connector-curvature="0" />
    <path
       style="font-size:medium;font-style:normal;font-variant:normal;font-weight:normal;font-stretch:normal;text-indent:0;text-align:start;text-decoration:none;line-height:normal;letter-spacing:normal;word-spacing:normal;text-transform:none;direction:ltr;block-progression:tb;writing-mode:lr-tb;text-anchor:start;baseline-shift:baseline;color:#000000;fill:#f1f3f5;fill-opacity:0.90288714000000003;fill-rule:nonzero;stroke:none;stroke-width:2;marker:none;visibility:visible;display:inline;overflow:visible;enable-background:accumulate;font-family:Sans;-inkscape-font-specification:Sans"
       d="M 8 -0.1875 C 3.492 -0.1875 -0.1875 3.492 -0.1875 8 C -0.1875 12.508 3.492 16.1875 8 16.1875 C 12.508 16.1875 16.1875 12.508 16.1875 8 C 16.1875 3.492 12.508 -0.1875 8 -0.1875 z M 8 1 C 11.8556 1 15 4.1444 15 8 C 15 11.8556 11.8556 15 8 15 C 4.1444 15 1 11.8556 1 8 C 1 4.1444 4.1444 1 8 1 z M 6 5 L 6 6 L 9 6 L 10 7 L 6 7 L 5 8 L 5 10 L 6 11 L 10 11 L 11 10 L 11 6 L 10 5 L 6 5 z M 7 8 L 10 8 L 10 9 L 9 10 L 7 10 L 6 9 L 7 8 z "
       transform="translate(-3364.4171,2100.7186)"
       id="path3007" />
  </g>
</svg>
